X:1
T:Never Be Afraid
T:Never Be Afraid
T:William Batchelder Bradbury
T:Frances Jane (Fanny) Crosby, 1864
T:Public Domain Courtesy of the Cyber Hymnal™
C:William Batchelder Bradbury
Z:Public Domain
Z:Courtesy of the Cyber Hymnal™
%%score ( 1 2 ) 3
L:1/8
Q:1/4=80
M:2/4
K:F
V:1 treble 
V:2 treble 
V:3 bass 
V:1
 [FA]/[FA]/[FA]/[FA]/ [FA][FA] | [FA][EG] [CF]C | [CF][CF] [EG][EG] | [FA][Ac] [Ac]2 | %4
w: 1.~Ne- ver be a- fraid to|speak for Je- sus,|Think how much a|word can do;|
w: 2.~Ne- ver be a- fraid to|work for Je- sus|In His vine- yard|day by day;|
w: 3.~Ne- ver be a- fraid to|bear for Je- sus|Keen re- proach- es|when they fall|
w: 4.~Ne- ver be a- fraid to|die for Je- sus,|He the Life, the|Truth, the Way,|
 [FA]/[FA]/[FA]/[FA]/ [FA][FA] | [FA][EG] [CF]C | [DG][DG] [GB][GB] | [FA][EG] F2 || %8
w: Ne- ver be a- fraid to|own your Sav- ior,|He Who loves and|cares for you.|
w: La- bor with a kind and|will- ing spir- it,|He will all your|toil re- pay.|
w: Pa- tient- ly en- dure your|ev- ery tri- al,|Je- sus meek- ly|bore them all.|
w: Gent- ly in His arms of|love will bear you|To the realms of|end- less day.|
"^Refrain" [FA]/[FA]/[FA]/[FA]/ [Ac]2 | [FB]/[FB]/[FB]/[FB]/ [Bd]2 | [Ac][FA] F[FG] | [FA][EG] z2 | %12
w: ||||
w: ||||
w: ||||
w: ||||
 [FA][FA] [Ac][Ac] | [GB][GB] [Bd]!fermata![Bd] | [Ac]F [EG][GB] | [FA][EG] F2 |] %16
w: ||||
w: ||||
w: ||||
w: ||||
V:2
 x4 | x3 C | x4 | x4 | x4 | x3 C | x4 | x2 F2 || x4 | x4 | x2 F x | x4 | x4 | x4 | x F x2 | %15
 x2 F2 |] %16
V:3
 [F,C]/[F,C]/[F,C]/[F,C]/ [F,C][F,C] | [C,C][C,B,] [F,A,][F,A,] | [A,,F,][A,,F,] [C,C][C,C] | %3
w: ~ ~ ~ ~ ~ ~|~ ~ ~ ~|~ ~ ~ ~|
 [F,C][F,C] [F,C]2 | [F,C]/[F,C]/[F,C]/[F,C]/ [F,C][F,C] | [C,C][C,C] [F,A,][F,A,] | %6
w: ~ ~ ~|~ ~ ~ ~ ~ ~|~ ~ ~ ~|
 [B,,B,][B,,B,] [B,,D][B,,D] | [C,C][C,B,] [F,A,]2 || [F,C]/[F,C]/[F,C]/[F,C]/ [F,C]2 | %9
w: ~ ~ ~ ~|~ ~ ~|Ne- ver be a- fraid,|
 [B,,D]/[B,,D]/[B,,D]/[B,,D]/ [B,,D]2 | [F,C][F,C] [F,A,][F,B,] | [C,C][C,C] z2 | %12
w: ne- ver be a- fraid,|Ne- ver, ne- ver,|ne- ver;|
 [F,C][F,C] [F,C][F,C] | [B,,D][B,,D] [B,,B,]!fermata![B,,B,] | [F,C][F,A,] [B,,B,][B,,D] | %15
w: Je- sus is your|lov- ing Sav- ior,|There- fore ne- ver|
 [C,C][C,B,] [F,A,]2 |] %16
w: be a- fraid.|

